symbols/web/important_devices/materialsymbolsrounded/important_devices_wght700gradN25_24px.svg

<svg xmlns="http://www.w3.org/2000/svg" height="24" width="24"><path d="M17.675 21.55q-.65 0-1.1-.45-.45-.45-.45-1.1v-7.45q0-.65.45-1.1.45-.45 1.1-.45H20.9q.625 0 1.088.45.462.45.462 1.1V20q0 .65-.462 1.1-.463.45-1.088.45Zm0-2.725H20.9v-5.1h-3.225Zm-8.8 2.475q-.375 0-.65-.275t-.275-.675q0-.375.275-.65t.65-.275h1.375v-1.75H4.6q-1.275 0-2.15-.875t-.875-2.15V5.4q0-1.275.875-2.15t2.15-.875h13.2q1.275 0 2.15.875t.875 2.15v2.1q0 .625-.45 1.075-.45.45-1.075.45-.6 0-1.05-.45-.45-.45-.45-1.075V5.4H4.6v9.25h8.025q.625 0 1.075.45.45.45.45 1.05 0 .625-.45 1.075-.45.45-1.075.45h-.5v1.75H13.2q.4 0 .675.275t.275.65q0 .4-.275.675t-.675.275Zm1.25-8.525 1.075-.8 1.05.8q.275.225.562.025.288-.2.188-.525l-.4-1.375 1.15-.925q.275-.225.163-.537-.113-.313-.463-.313h-1.375L11.65 7.8q-.05-.15-.187-.238-.138-.087-.263-.087-.15 0-.275.087-.125.088-.175.238l-.425 1.325h-1.4q-.325 0-.437.313-.113.312.137.537L9.8 10.9l-.4 1.375q-.125.325.162.525.288.2.563-.025Z"/></svg>

<svg xmlns="http://www.w3.org/2000/svg" height="24" width="24"><path d="M17.675 21.55Q17.025 21.55 16.575 21.1Q16.125 20.65 16.125 20V12.55Q16.125 11.9 16.575 11.45Q17.025 11 17.675 11H20.9Q21.525 11 21.988 11.45Q22.45 11.9 22.45 12.55V20Q22.45 20.65 21.988 21.1Q21.525 21.55 20.9 21.55ZM17.675 18.825H20.9V13.725H17.675ZM8.875 21.3Q8.5 21.3 8.225 21.025Q7.95 20.75 7.95 20.35Q7.95 19.975 8.225 19.7Q8.5 19.425 8.875 19.425H10.25V17.675H4.6Q3.325 17.675 2.45 16.8Q1.575 15.925 1.575 14.65V5.4Q1.575 4.125 2.45 3.25Q3.325 2.375 4.6 2.375H17.8Q19.075 2.375 19.95 3.25Q20.825 4.125 20.825 5.4V7.5Q20.825 8.125 20.375 8.575Q19.925 9.025 19.3 9.025Q18.7 9.025 18.25 8.575Q17.8 8.125 17.8 7.5V5.4Q17.8 5.4 17.8 5.4Q17.8 5.4 17.8 5.4H4.6Q4.6 5.4 4.6 5.4Q4.6 5.4 4.6 5.4V14.65Q4.6 14.65 4.6 14.65Q4.6 14.65 4.6 14.65H12.625Q13.25 14.65 13.7 15.1Q14.15 15.55 14.15 16.15Q14.15 16.775 13.7 17.225Q13.25 17.675 12.625 17.675H12.125V19.425H13.2Q13.6 19.425 13.875 19.7Q14.15 19.975 14.15 20.35Q14.15 20.75 13.875 21.025Q13.6 21.3 13.2 21.3ZM10.125 12.775 11.2 11.975 12.25 12.775Q12.525 13 12.812 12.8Q13.1 12.6 13 12.275L12.6 10.9L13.75 9.975Q14.025 9.75 13.913 9.438Q13.8 9.125 13.45 9.125H12.075L11.65 7.8Q11.6 7.65 11.463 7.562Q11.325 7.475 11.2 7.475Q11.05 7.475 10.925 7.562Q10.8 7.65 10.75 7.8L10.325 9.125H8.925Q8.6 9.125 8.488 9.438Q8.375 9.75 8.625 9.975L9.8 10.9L9.4 12.275Q9.275 12.6 9.562 12.8Q9.85 13 10.125 12.775Z"/></svg>
